X:214
T:Liecester Waltz,The. CJF.214
R:Waltz
S:C.J.Fox MS, 1829/33, Beverley,E.Yorks.
N:”C J Fox” is written in the stave at the end of the tune.
N:The spelling of the title is as in the MS. – PJH.
B:Kidson Coll.Mitchell Lib.M1805
O:England
A:East Yorkshire
Z:vmp.P J Headford 2000 & 2008
M:3/8
L:1/16
Q:3/8=60
K:D
“p”A2|(dc)d>ef>e|(dc)d>ef>d|(e^d)e>fg>e|(dc)B>AB>c|\
” f”(dc)d>ef>d|(e^d)e>fg>e|(dc)dfec|d4:|!
|:” f”a2|(a2d’2)f2|d4f2|(ed)c>de>f|.g2.e2 a2|\
(a2d’2f2)|d4f2|(ed)e>fg>e|d4:|!
|:”p”A2|A>GF>GA2|B>AG>AB2|c>BA>Bc2|d>ef>ga2|\
A>GF>GA2|B>AG>AB2|c>BA>Bc>A|d4:|

